!!!COM: Ockeghem, Johannes
!!!CDT: ~1425-1497/02/06
!!!OTL: Fors seullement contre
!!!AGN: Song; Chanson
!!!SCT: Ock3004
!!!SCA: Ock3004
!!!voices: 3
**kern	**text	**text	**text	**kern	**text	**text	**text	**kern	**text	**text	**text
*staff3	*staff3	*staff3	*staff3	*staff2	*staff2	*staff2	*staff2	*staff1	*staff1	*staff1	*staff1
*Ivox	*	*	*	*Ivox	*	*	*	*Ivox	*	*	*
*I"Contra	*	*	*	*I"Tenor	*	*	*	*I"Canon Royal	*	*	*
*I'C	*	*	*	*I'T	*	*	*	*I'CR	*	*	*
*clefF4	*	*	*	*clefGv2	*	*	*	*clefG2	*	*	*
*k[b-]	*	*	*	*k[b-]	*	*	*	*k[b-]	*	*	*
*M2/1	*	*	*	*M2/1	*	*	*	*M2/1	*	*	*
*met(C|)	*	*	*	*met(C|)	*	*	*	*met(C|)	*	*	*
=1-	=1-	=1-	=1-	=1-	=1-	=1-	=1-	=1-	=1-	=1-	=1-
!!LO:TX:X=-40:Z=8:t=Form&colon; rondeau
!LO:TX:Z=8:i:t=Ct = highest voice of Ockeghem's Fors seulement l'attente, down a 12th	!	!	!	!	!	!	!	!	!	!	!
0D	Fors	Vos-	Mon	0d	Fors	Mon	Je	0a	Fors	Mon	Je
=2	=2	=2	=2	=2	=2	=2	=2	=2	=2	=2	=2
1D	seu-	-tre	des-	1.d	seul-	vou-	cuide	1b-	seul-	vou-	cuide
1D	-le-	ri-	-con-	.	.	.	.	[1a	-le-	-loir	a-
.	.	.	.	4c	-le-	-loir	a-	.	.	.	.
.	.	.	.	4B-	.	.	.	.	.	.	.
=3	=3	=3	=3	=3	=3	=3	=3	=3	=3	=3	=3
1.D	-ment	-gueur	-fort	1A	-ment	j'ay	-voir	2a]	.	.	.
.	.	.	.	.	.	.	.	2f	.	.	.
.	.	.	.	1d	.	.	.	2.f	-ment	j'ay	-voir
4C	.	.	.	.	.	.	.	.	.	.	.
4BB-	.	.	.	.	.	.	.	4g	.	.	.
=4	=4	=4	=4	=4	=4	=4	=4	=4	=4	=4	=4
1AA	.	tel-	.	1.c	.	.	.	4a	.	.	.
.	.	.	.	.	.	.	.	4b-	.	.	.
.	.	.	.	.	.	.	.	1cc	.	.	.
1AA	l'at-	-le-	tou-	.	.	.	.	.	.	.	.
.	.	.	.	2d	con-	tout	en	4b-	con-	tout	en
.	.	.	.	.	.	.	.	4a	.	.	.
=5	=5	=5	=5	=5	=5	=5	=5	=5	=5	=5	=5
1C	-ten-	-ment	-te	1e-i	-tre	en	ter-	1g	-tre	en	ter-
1D	-te	m'y	seu-	1d	ce	ce-	-re	1f	ce	ce-	-re
=6	=6	=6	=6	=6	=6	=6	=6	=6	=6	=6	=6
1E	que	queurt	-le	2c	qu'ay	-la	des	1g	qu'ay	-la	des
.	.	.	.	2B-	.	.	.	.	.	.	.
1F	je	.	je	1A	.	.	.	1a	pro-	soub-	a-
=7	=7	=7	=7	=7	=7	=7	=7	=7	=7	=7	=7
1.G	meu-	seu-	pleu-	2r	.	.	.	1.b-	.	.	.
.	.	.	.	2d	pro-	soub-	a-	.	.	.	.
.	.	.	.	2B-	.	.	.	.	.	.	.
2F	.	.	.	[2c	.	.	.	2a	.	.	.
=8	=8	=8	=8	=8	=8	=8	=8	=8	=8	=8	=8
2E	.	.	.	2c]	.	.	.	1b-	.	.	.
2D	.	.	.	2d	.	.	.	.	.	.	.
1C	-re,	-re	-re,	2e-i	.	.	.	2.cc	.	.	.
.	.	.	.	[2c	.	.	.	.	.	.	.
.	.	.	.	.	.	.	.	4b-	.	.	.
=9	=9	=9	=9	=9	=9	=9	=9	=9	=9	=9	=9
1r	.	.	.	4c]	.	.	.	4a	.	.	.
.	.	.	.	4B-	.	.	.	4g	.	.	.
.	.	.	.	2G	.	.	.	1g	.	.	.
1D	En	Qu'en	En	1A	.	.	.	.	.	.	.
.	.	.	.	.	.	.	.	2f#i	.	.	.
=10	=10	=10	=10	=10	=10	=10	=10	=10	=10	=10	=10
1BB-	mon	ce	mau-	0G	-mys,	-mis	-mys	1g	-mys,	-mis	-mys
1GG	.	.	.	.	.	.	.	1r	.	.	.
=11	=11	=11	=11	=11	=11	=11	=11	=11	=11	=11	=11
0AA	las	par-	-di-	1r	.	.	.	1cc	Et	Et	Et
.	.	.	.	1F	Et	Et	Et	1cc	en	hors	que en
=12	=12	=12	=12	=12	=12	=12	=12	=12	=12	=12	=12
1GG	cueur	-ti	-sant	1G	en	hors	que en	1b-	tous	de	eulx
1D	nul	il	sur	2A	tous	de	eulx	2a	.	.	.
.	.	.	.	[2B-	.	.	.	2f	.	.	.
=13	=13	=13	=13	=13	=13	=13	=13	=13	=13	=13	=13
1E	es-	fault	.	2B-]	.	.	.	1g	lieux	l&agrave;	ay
.	.	.	.	2c	.	.	.	.	.	.	.
1F	.	que	ma	1A	.	.	.	1cc	se-	ja	.
=14	=14	=14	=14	=14	=14	=14	=14	=14	=14	=14	=14
1G	-poir	je	foy	1G	lieux	l&agrave;	ay	1b-	-ray	ne	ma
1A	.	.	.	2r	.	.	.	2.a	.	.	.
.	.	.	.	2F	se-	ja	ma	.	.	.	.
.	.	.	.	.	.	.	.	4f	.	.	.
=15	=15	=15	=15	=15	=15	=15	=15	=15	=15	=15	=15
1B-	ne	.	a	2E	-ray	ne	fi-	2g	.	.	.
.	.	.	.	1D	.	.	.	2f	.	.	.
1B-	de-	m'as-	tou-	.	.	.	.	[1d	.	.	.
.	.	.	.	[2G	.	.	-an-	.	.	.	.
=16	=16	=16	=16	=16	=16	=16	=16	=16	=16	=16	=16
1B-	-meu-	-seu-	-te heu-	2G]	.	.	.	1d]	.	.	.
.	.	.	.	4F#i	.	.	.	.	.	.	.
.	.	.	.	4E	.	.	.	.	.	.	.
1A	.	.	.	1F#i	.	.	.	1r	.	.	.
=17	=17	=17	=17	=17	=17	=17	=17	=17	=17	=17	=17
1.G	.	.	.	1G	fort,	rai,	-ce,	1.dd	fort	se-	fi-
.	.	.	.	1r	.	.	.	.	.	.	.
4F	.	.	.	.	.	.	.	4cc	.	.	.
4E	.	.	.	.	.	.	.	4b-	.	.	.
=18	=18	=18	=18	=18	=18	=18	=18	=18	=18	=18	=18
[0F	-re,	-re,	-re	1.c	fort	se-	fi-	0a	.	.	-an-
.	.	.	.	[2d	.	.	-an-	.	.	.	.
=19	=19	=19	=19	=19	=19	=19	=19	=19	=19	=19	=19
0F]	.	.	.	2d]	.	.	.	1a	ent-	-rai	-ce
.	.	.	.	2c	.	.	.	.	.	.	.
.	.	.	.	1A	ent-	-rai	-ce	1cc	.	.	.
=20	=20	=20	=20	=20	=20	=20	=20	=20	=20	=20	=20
0r	.	.	.	2.G	-re-	trans-	re-	2.b-	-re-	trans-	re-
.	.	.	.	4F	.	.	.	4a	.	.	.
.	.	.	.	2.B-	.	.	.	4g	.	.	.
.	.	.	.	.	.	.	.	4f	.	.	.
.	.	.	.	.	.	.	.	[2b-	.	.	.
.	.	.	.	4c	.	.	.	.	.	.	.
=21	=21	=21	=21	=21	=21	=21	=21	=21	=21	=21	=21
1r	.	.	.	2d	-mis,	.	-mys,	4b-]	.	.	.
.	.	.	.	.	.	.	.	4a	.	.	.
.	.	.	.	2B-	.	.	.	2b-	.	.	.
1F	Car	Dont	Ma	2r	.	.	.	2cc	.	.	.
.	.	.	.	2f	ent-	.	re-	[2dd	.	.	.
=22	=22	=22	=22	=22	=22	=22	=22	=22	=22	=22	=22
1G	mon	je	le-	2d	.	.	.	2dd]	.	.	.
.	.	.	.	1e-i	-re-	.	.	2b-	.	.	.
1A	ma-	n'ay	-au-	.	.	.	.	1cc	.	.	.
.	.	.	.	2c	.	.	.	.	.	.	.
=23	=23	=23	=23	=23	=23	=23	=23	=23	=23	=23	=23
1.B-	-leur	bien	-t&eacute;,	2.B-	.	.	.	1.dd	-mis	-mis;	-mys;
.	.	.	.	4c	.	.	.	.	.	.	.
.	.	.	.	2d	.	.	.	.	.	.	.
4A	.	.	.	2eni	.	.	.	4cc	.	.	.
4G	.	.	.	.	.	.	.	4b-	.	.	.
=24	=24	=24	=24	=24	=24	=24	=24	=24	=24	=24	=24
0F	.	.	.	1f	-mis;	.	-mys;	0a	.	.	.
.	.	.	.	1r	.	.	.	.	.	.	.
=25	=25	=25	=25	=25	=25	=25	=25	=25	=25	=25	=25
1F	si	qui	qui	2.f	Et	.	On	0r	.	.	.
.	.	.	.	4e	.	.	.	.	.	.	.
1F	tres-	en	tant	2c	.	.	.	.	.	.	.
.	.	.	.	[2d	ac-	.	doibt	.	.	.	.
=26	=26	=26	=26	=26	=26	=26	=26	=26	=26	=26	=26
0G	-fort	riens	m'a	4d]	.	.	.	0r	.	.	.
.	.	.	.	4c	.	.	.	.	.	.	.
.	.	.	.	2A	.	.	.	.	.	.	.
.	.	.	.	1B-	-quer-	.	sca-	.	.	.	.
=27	=27	=27	=27	=27	=27	=27	=27	=27	=27	=27	=27
0A	me	me	fait	1A	-ray.	.	-voir,	0f	Et	Gar-	On
.	.	.	.	1r	.	.	.	.	.	.	.
=28	=28	=28	=28	=28	=28	=28	=28	=28	=28	=28	=28
1G	tour-	con-	do-	1B-	Et	-Gar-	On	1g	ac-	-der	doibt
1F	.	.	.	2A	ac-	-der	doibt	1a	-quer-	je	sca-
.	.	.	.	[2d	.	.	.	.	.	.	.
=29	=29	=29	=29	=29	=29	=29	=29	=29	=29	=29	=29
0E-i	-men-	-ten-	-len-	2d]	.	.	.	2b-	-ray	veul	-voir
.	.	.	.	2c	-quer-	je	sca-	2.cc	.	.	.
.	.	.	.	2.c	-ray	veul	-voir	.	.	.	.
.	.	.	.	.	.	.	.	4b-	.	.	.
.	.	.	.	.	.	.	.	4a	.	.	.
.	.	.	.	4B-	.	.	.	4g	.	.	.
=30	=30	=30	=30	=30	=30	=30	=30	=30	=30	=30	=30
[0D	-te&	-te&	-te.&	2.d	.	.	.	2b-	.	.	.
.	.	.	.	.	.	.	.	1a	.	.	.
.	.	.	.	4e	.	.	.	.	.	.	.
.	.	.	.	[1f	.	.	.	.	.	.	.
.	.	.	.	.	.	.	.	[2dd	u-	or-	que
=31	=31	=31	=31	=31	=31	=31	=31	=31	=31	=31	=31
0D_	.	.	.	2f]	.	.	.	4dd]	.	.	.
.	.	.	.	.	.	.	.	4cc	.	.	.
.	.	.	.	2d	u-	.	que	4b-	.	.	.
.	.	.	.	.	.	.	.	4a	.	.	.
.	.	.	.	2.d	-ne,	.	n'ay,	2b-	-ne,	-dre,	n'ay,
.	.	.	.	.	.	.	.	2a	.	.	.
.	.	.	.	4c	.	.	.	.	.	.	.
=32	=32	=32	=32	=32	=32	=32	=32	=32	=32	=32	=32
0D]	.	.	.	2B-	.	.	.	2r	.	.	.
.	.	.	.	2A	.	.	.	1a	u-	or-	que
.	.	.	.	2r	.	.	.	.	.	.	.
.	.	&	.	[2d	u-	or-	que	2f	.	.	.
=33	=33	=33	=33	=33	=33	=33	=33	=33	=33	=33	=33
0r	.	.	.	2d]	.	.	.	2.e	-ne	-dre	n'ay
.	.	.	.	2c	.	.	.	.	.	.	.
.	.	.	.	.	.	.	.	4d	.	.	.
.	.	.	.	1d	-ne	-dre,	n'ay	1f	.	.	.
=34	=34	=34	=34	=34	=34	=34	=34	=34	=34	=34	=34
0r	.	.	.	2e	belle	sens	nul-	2g	belle	sens	nul-
.	.	.	.	2d	.	.	.	1a	.	.	.
.	.	.	.	2.f	.	.	.	.	.	.	.
.	.	.	.	.	.	.	.	[2cc	.	.	.
.	.	.	.	4e	.	.	.	.	.	.	.
=35	=35	=35	=35	=35	=35	=35	=35	=35	=35	=35	=35
0r	.	.	.	4d	.	.	.	2cc]	.	.	.
.	.	.	.	4c	.	.	.	.	.	.	.
.	.	.	.	2d	.	.	.	2b-	.	.	.
.	.	.	.	2c	.	.	.	1a	.	.	.
.	.	.	.	[2A	.	.	.	.	.	.	.
=36	=36	=36	=36	=36	=36	=36	=36	=36	=36	=36	=36
0r	.	.	.	2A]	.	.	.	1dd	a-	et	-le
.	.	.	.	2G	a-	et	-le	.	.	.	.
.	.	.	.	2A	-li-	pru-	doub-	2cc	-li-	pru-	doub-
.	.	.	.	2B-	.	.	.	[2b-	-an-	-den-	-tan-
=37	=37	=37	=37	=37	=37	=37	=37	=37	=37	=37	=37
0rN	.	.	.	2c	-an-	-den-	-tan-	4b-]	.	.	.
.	.	.	.	.	.	.	.	4a	.	.	.
.	.	.	.	2d	.	.	.	1a	.	.	.
.	.	.	.	1B-	.	.	.	.	.	.	.
.	.	.	.	.	.	.	.	2g	.	.	.
=38	=38	=38	=38	=38	=38	=38	=38	=38	=38	=38	=38
0F	Qu'il	.	Las,	1AN	-ce.	-ce.&	-ce,	0aN	-ce.	-ce.&	-ce,
.	.	.	.	1r	.	.	.	.	.	.	.
=39	=39	=39	=39	=39	=39	=39	=39	=39	=39	=39	=39
1G	n'est	.	que	1d	J'en	.	Ou	1r	.	.	.
1G	dou-	.	je	1B-	ay	.	aul-	1g	J'en	.	Ou
=40	=40	=40	=40	=40	=40	=40	=40	=40	=40	=40	=40
1F	-leur	.	suis	1c	.	.	.	1a	ay	.	aul-
1D	que	.	de	1d	de-	.	.	1f	.	.	.
=41	=41	=41	=41	=41	=41	=41	=41	=41	=41	=41	=41
1E-	par	.	vi-	2B-	.	.	-tre-	1g	.	.	.
.	.	.	.	2.c	-sir	.	-ment	.	.	.	.
1E-i	vous	.	-vre	.	.	.	.	1g	de-	.	-tre-
.	.	.	.	4B-	.	.	.	.	.	.	.
.	.	.	.	4A	.	.	.	.	.	.	.
.	.	.	.	4G	.	.	.	.	.	.	.
=42	=42	=42	=42	=42	=42	=42	=42	=42	=42	=42	=42
1D	je	.	mal	1F	.	.	.	1a	-sir	.	-ment
1BB-	.	.	.	2F	voi-	.	quer-	1d	.	.	.
.	.	.	.	[2G	.	.	.	.	.	.	.
=43	=43	=43	=43	=43	=43	=43	=43	=43	=43	=43	=43
0C	ne	.	con-	4G]	.	.	.	1e	.	.	.
.	.	.	.	4F	.	.	.	.	.	.	.
.	.	.	.	4E	.	.	.	.	.	.	.
.	.	.	.	4D	.	.	.	.	.	.	.
.	.	.	.	2G	.	.	.	1e	voi-	.	quer-
.	.	.	.	2A	.	.	.	.	.	.	.
=44	=44	=44	=44	=44	=44	=44	=44	=44	=44	=44	=44
1.BB-	sen-	.	-ten-	2.B-	-re	.	-roye	1d	-re	.	-roye
.	.	.	.	4G	.	.	.	.	.	.	.
.	.	.	.	2F	.	.	.	2r	.	.	.
4AA	.	.	.	2G	.	.	.	[2dd	dez	.	ma
4GG	.	.	.	.	.	.	.	.	.	.	.
=45	=45	=45	=45	=45	=45	=45	=45	=45	=45	=45	=45
1FF	-te,	.	-te	1A	dez	.	ma	2dd]	.	.	.
.	.	.	.	.	.	.	.	2cc	.	.	.
1r	.	.	.	1G	.	.	.	2b-	mon	.	des-
.	.	.	.	.	.	.	.	2g	en-	.	-fi-
=46	=46	=46	=46	=46	=46	=46	=46	=46	=46	=46	=46
0F	Pour-	.	Quant	2r	.	.	.	1.a	-fan-	.	-an-
.	.	.	.	1c	mon	.	des-	.	.	.	.
.	.	.	.	2A	en-	.	-fi-	2f	.	.	.
=47	=47	=47	=47	=47	=47	=47	=47	=47	=47	=47	=47
1D	-ce	.	de	2B-	-fan-	.	-an-	1f	-ce;	.	-ce,
.	.	.	.	2A	.	.	.	.	.	.	.
1D	que	.	par	[1d	-ce;	.	-ce,	1r	.	.	.
=48	=48	=48	=48	=48	=48	=48	=48	=48	=48	=48	=48
0BB-	suis	.	vous	1d]	.	.	.	1f	Point	.	Car
.	.	.	.	1r	.	.	.	1g	.	.	.
=49	=49	=49	=49	=49	=49	=49	=49	=49	=49	=49	=49
1.AA	de	.	n'ay	1.c	Point	.	Car	1.a	.	.	.
2BB-	.	.	.	4B-	ne	.	je	4g	ne	.	je
.	.	.	.	4A	.	.	.	4f	.	.	.
=50	=50	=50	=50	=50	=50	=50	=50	=50	=50	=50	=50
1C	.	.	.	1G	voul-	.	sce-	1e	voul-	.	sce-
1D	vous	.	.	1F	.	.	.	2f	.	.	.
.	.	.	.	.	.	.	.	[2a	.	.	.
=51	=51	=51	=51	=51	=51	=51	=51	=51	=51	=51	=51
2C	per-	.	riens	1G	.	.	.	4a]	.	.	.
.	.	.	.	.	.	.	.	4g	.	.	.
2BB-	.	.	.	.	.	.	.	1g	.	.	.
1AA	-dre	.	.	1A	.	.	.	.	.	.	.
.	.	.	.	.	.	.	.	4f#i	.	.	.
.	.	.	.	.	.	.	.	4e	.	.	.
=52	=52	=52	=52	=52	=52	=52	=52	=52	=52	=52	=52
1r	.	.	.	1D	-droye	.	-ray	1f#i	.	.	.
[1GG	bien	.	qui	2r	.	.	.	1g	-droye	.	-ray
.	.	.	.	2E	a-	.	de	.	.	.	.
=53	=53	=53	=53	=53	=53	=53	=53	=53	=53	=53	=53
1GG]	.	.	.	2D	.	.	tout	2r	.	.	.
.	.	.	.	2.d	.	.	.	2.b-	a-	.	de
[1BB-	seu-	.	me	.	.	.	.	.	.	.	.
.	.	.	.	4c	.	.	.	4a	.	.	.
.	.	.	.	4B-	.	.	.	4g	.	.	.
.	.	.	.	4A	.	.	.	4f	.	.	.
=54	=54	=54	=54	=54	=54	=54	=54	=54	=54	=54	=54
2BB-]	.	.	.	1B-	-voir	.	.	1g	-voir	.	tout
2C	.	.	de-	.	.	.	.	.	.	.	.
[1D	.	.	-meu-	1A	.	.	hon-	1f	.	.	.
=55	=55	=55	=55	=55	=55	=55	=55	=55	=55	=55	=55
2D]	.	.	.	1B-	nulz,	.	-neur,	2r	.	.	.
2E	.	.	.	.	.	.	.	2g	nulz	.	hon-
[1F	.	.	.	1A	.	.	.	2f	.	.	.
.	.	.	.	.	.	.	.	[2a	.	.	-neur
=56	=56	=56	=56	=56	=56	=56	=56	=56	=56	=56	=56
2F]	.	.	.	2r	.	.	.	4a]	.	.	.
.	.	.	.	.	.	.	.	4b-	.	.	.
2E	.	.	.	1A	nulz,	.	hon-	1cc	.	.	.
[1C	.	.	.	.	.	.	.	.	.	.	.
.	.	.	.	4G	.	.	.	4b-	.	.	.
.	.	.	.	4F	.	.	.	4a	.	.	.
=57	=57	=57	=57	=57	=57	=57	=57	=57	=57	=57	=57
2C]	.	.	.	2E	.	.	-neur,	2g	.	.	.
2D	.	.	.	2D	.	.	.	2f	.	.	.
2E	.	.	.	2r	.	.	.	1b-	.	.	.
2F	.	.	.	2d	nulz	.	hon-	.	.	.	.
=58	=58	=58	=58	=58	=58	=58	=58	=58	=58	=58	=58
1.G	.	.	.	2e-i	.	.	-neur	2r	.	.	.
.	.	.	.	2.d	.	.	.	1b-	e-	.	hon-
.	.	.	.	4B-	.	.	.	.	.	.	.
2F	.	.	.	2c	.	.	.	4a	.	.	.
.	.	.	.	.	.	.	.	4g	.	.	.
=59	=59	=59	=59	=59	=59	=59	=59	=59	=59	=59	=59
2D	.	.	.	2d	.	.	.	2f	.	.	-neur
2C	.	.	.	2G	.	.	.	2g	.	.	.
1F	.	.	.	2r	.	.	.	1a	.	.	.
.	.	.	.	2F	e-	.	des-	.	.	.	.
=60	=60	=60	=60	=60	=60	=60	=60	=60	=60	=60	=60
2E	.	.	.	2G	.	.	.	2g	.	.	des-
1D	.	.	.	2F	.	.	.	2.a	.	.	.
.	.	.	.	2B-	.	.	.	.	.	.	.
.	.	.	.	.	.	.	.	8gL	.	.	.
.	.	.	.	.	.	.	.	8fJ	.	.	.
2C	.	.	.	2c	.	.	.	4.e	.	.	.
.	.	.	.	.	.	.	.	8d	.	.	.
=61	=61	=61	=61	=61	=61	=61	=61	=61	=61	=61	=61
[0D	.	.	.	2A	.	.	.	2.f	.	.	.
.	.	.	.	2.d	.	.	.	.	.	.	.
.	.	.	.	.	.	.	.	4g	.	.	.
.	.	.	.	.	.	.	.	2a	.	.	.
.	.	.	.	4c	.	.	.	.	.	.	.
.	.	.	.	4B-	.	.	.	[2b-	.	.	.
.	.	.	.	4A	.	.	.	.	.	.	.
=62	=62	=62	=62	=62	=62	=62	=62	=62	=62	=62	=62
0D]	.	.	.	2.B-	.	.	.	4b-]	.	.	.
.	.	.	.	.	.	.	.	4a	.	.	.
.	.	.	.	.	.	.	.	1g	.	.	.
.	.	.	.	8AL	.	.	.	.	.	.	.
.	.	.	.	8GJ	.	.	.	.	.	.	.
.	.	.	.	1A	-ne-	.	.	.	.	.	.
.	.	.	.	.	.	.	.	2f#i	-ne-	.	.
=63	=63	=63	=63	=63	=63	=63	=63	=63	=63	=63	=63
0GGl	-re.	.	-re	0Gl	-mys.	.	-mys.	0gl	-mys.	.	-mys.
==	==	==	==	==	==	==	==	==	==	==	==
*-	*-	*-	*-	*-	*-	*-	*-	*-	*-	*-	*-
!!!RDF**kern: l = long note in original notation
!!!RDF**kern: i = editorial accidental
!!!RDF**kern: V = start of tuplet marker
!!!RDF**kern: Z = end of tuplet marker
!!!RDF**kern: N = signum congruentiae
!!!ENC: Jesse Rodin 16 April 2018
!!!END: 2018/07/15/
!!!EED: Jesse Rodin
!!!EEV: 2018/07/23/
!!!ONB: Translated from MusicXML and edited on 2018/07/23/ by Craig Sapp
!!muse2ps: C^@{COM}^i2I150v95,95,120Q16l2500c85z18
